src/public/assets/tokens/powr.svg

<svg width="24" height="24" viewBox="0 0 24 24" fill="none" xmlns="http://www.w3.org/2000/svg">
<path d="M11.9739 23.944C11.9291 23.9429 11.8863 23.925 11.8539 23.894L0.0539258 12.094C0.0369007 12.079 0.0232655 12.0605 0.0139258 12.0398C0.00458613 12.0191 -0.000244141 11.9967 -0.000244141 11.974C-0.000244141 11.9513 0.00458613 11.9288 0.0139258 11.9082C0.0232655 11.8875 0.0369007 11.869 0.0539258 11.854L11.8539 0.0539868C11.8689 0.0369618 11.8874 0.0233265 11.9081 0.0139868C11.9288 0.00464717 11.9512 -0.000183105 11.9739 -0.000183105C11.9966 -0.000183105 12.0191 0.00464717 12.0398 0.0139868C12.0604 0.0233265 12.0789 0.0369618 12.0939 0.0539868L23.9039 11.854C23.9334 11.887 23.9498 11.9297 23.9498 11.974C23.9498 12.0183 23.9334 12.061 23.9039 12.094L12.0939 23.944C12.0553 23.9586 12.0126 23.9586 11.9739 23.944ZM0.413926 11.944L11.9739 23.544L23.5339 11.944L11.9739 0.413987L0.413926 11.944Z" fill="#0050db"/>
<path d="M17.8739 22.364L1.70387 18.044C1.6826 18.0383 1.66273 18.0282 1.64552 18.0144C1.62831 18.0007 1.61414 17.9835 1.60387 17.964C1.5894 17.9219 1.5894 17.8761 1.60387 17.834L5.90387 1.70399C5.91772 1.66148 5.9469 1.62564 5.98572 1.60346C6.02453 1.58128 6.07022 1.57434 6.11387 1.58399L22.2439 5.94399C22.2652 5.94862 22.2854 5.95758 22.3032 5.97032C22.3209 5.98305 22.3359 5.99929 22.3471 6.01803C22.3584 6.03677 22.3657 6.05761 22.3685 6.07927C22.3714 6.10094 22.3698 6.12296 22.3639 6.14399L18.0439 22.244C18.0345 22.281 18.0122 22.3134 17.981 22.3354C17.9499 22.3574 17.9119 22.3675 17.8739 22.364ZM1.97387 17.754L17.7739 21.994L21.9739 6.19399L6.19387 1.94399L1.97387 17.754Z" fill="#0050db"/>
<path d="M6.05395 22.384H5.97395C5.95289 22.3732 5.93467 22.3577 5.92076 22.3386C5.90686 22.3195 5.89767 22.2973 5.89395 22.274L1.58395 6.11398C1.58039 6.07599 1.59053 6.03798 1.61254 6.00681C1.63454 5.97564 1.66696 5.95336 1.70395 5.94398L17.8339 1.57398C17.8761 1.55951 17.9218 1.55951 17.9639 1.57398C17.9982 1.59815 18.023 1.63351 18.0339 1.67398L22.3639 17.814C22.3736 17.8576 22.3667 17.9033 22.3445 17.9421C22.3223 17.981 22.2865 18.0101 22.2439 18.024L6.10395 22.374L6.05395 22.384ZM1.97395 6.19398L6.17395 22.004L21.9739 17.754L17.7539 1.94398L1.97395 6.19398Z" fill="#0050db"/>
<path d="M17.824 22.354H17.744L0.143978 12.174C0.119225 12.1576 0.0989199 12.1353 0.0848736 12.1091C0.0708274 12.0829 0.0634766 12.0537 0.0634766 12.024C0.0634766 11.9943 0.0708274 11.965 0.0848736 11.9389C0.0989199 11.9127 0.119225 11.8904 0.143978 11.874L17.744 1.71398C17.7698 1.69906 17.7991 1.69121 17.829 1.69121C17.8588 1.69121 17.8881 1.69906 17.914 1.71398C17.9386 1.73046 17.9588 1.75278 17.9728 1.77894C17.9868 1.80511 17.994 1.83433 17.994 1.86398V22.184C17.994 22.2136 17.9868 22.2429 17.9728 22.269C17.9588 22.2952 17.9386 22.3175 17.914 22.334L17.824 22.354ZM0.573978 12.024L17.654 21.884V2.15398L0.573978 12.024Z" fill="#0050db"/>
<path d="M6.07396 22.334H5.98396C5.9593 22.3175 5.93909 22.2952 5.92514 22.269C5.91118 22.2429 5.90391 22.2136 5.90396 22.184V1.80399C5.90278 1.77521 5.90852 1.74656 5.9207 1.72046C5.93288 1.69436 5.95114 1.67156 5.97396 1.65399C5.9998 1.63907 6.02912 1.63121 6.05896 1.63121C6.0888 1.63121 6.11812 1.63907 6.14396 1.65399L23.824 11.854C23.8487 11.8704 23.869 11.8927 23.8831 11.9189C23.8971 11.945 23.9045 11.9743 23.9045 12.004C23.9045 12.0337 23.8971 12.0629 23.8831 12.0891C23.869 12.1153 23.8487 12.1376 23.824 12.154L6.15396 22.314L6.07396 22.334ZM6.25396 2.09399V21.874L23.424 12.004L6.25396 2.09399Z" fill="#0050db"/>
<path d="M14.184 10.014L10.374 9.38398C10.3254 9.37317 10.2826 9.34464 10.254 9.30398L5.97398 1.88398C5.94791 1.85326 5.93359 1.81428 5.93359 1.77398C5.93359 1.73369 5.94791 1.6947 5.97398 1.66398C6.0047 1.63791 6.04369 1.6236 6.08398 1.6236C6.12427 1.6236 6.16326 1.63791 6.19398 1.66398L14.294 9.66398C14.3129 9.69205 14.323 9.72513 14.323 9.75898C14.323 9.79283 14.3129 9.82591 14.294 9.85398C14.2929 9.88838 14.2819 9.92173 14.2624 9.95008C14.2429 9.97844 14.2157 10.0006 14.184 10.014ZM10.504 9.01398L13.684 9.53398L6.88398 2.83398L10.504 9.01398Z" fill="#0050db"/>
<path d="M17.8639 22.334C17.8188 22.3339 17.7756 22.3159 17.7439 22.284L9.64385 14.284C9.62271 14.2549 9.61133 14.2199 9.61133 14.184C9.61133 14.1481 9.62271 14.1131 9.64385 14.084C9.65283 14.0488 9.67174 14.0168 9.69833 13.992C9.72492 13.9672 9.75807 13.9505 9.79385 13.944L13.5739 14.574C13.6224 14.5848 13.6652 14.6133 13.6939 14.654L17.9739 22.074C18.0027 22.1054 18.0187 22.1464 18.0187 22.189C18.0187 22.2316 18.0027 22.2726 17.9739 22.304C17.9411 22.325 17.9027 22.3355 17.8639 22.334ZM10.2639 14.334L17.0639 21.084L13.4339 14.944L10.2639 14.334Z" fill="#0050db"/>
<path d="M0.213886 12.144C0.173013 12.1469 0.132596 12.1339 0.100967 12.1079C0.0693384 12.0819 0.0489076 12.0447 0.0438865 12.004C0.0373463 11.9632 0.045925 11.9213 0.0680154 11.8863C0.0901057 11.8514 0.124192 11.8256 0.163886 11.814L11.2139 8.874C11.2499 8.86468 11.2881 8.86746 11.3224 8.88191C11.3567 8.89637 11.3854 8.92169 11.4039 8.954C11.4237 8.9836 11.4342 9.0184 11.4342 9.054C11.4342 9.0896 11.4237 9.1244 11.4039 9.154L8.97389 12.064C8.95747 12.0824 8.93747 12.0972 8.91511 12.1075C8.89275 12.1178 8.86851 12.1234 8.84389 12.124H0.263886L0.213886 12.144ZM10.7839 9.344L1.52389 11.804H8.71389L10.7839 9.344Z" fill="#0050db"/>
<path d="M12.724 15.144C12.6945 15.1432 12.6656 15.1356 12.6396 15.1217C12.6135 15.1078 12.5911 15.088 12.574 15.064C12.5529 15.0349 12.5415 14.9999 12.5415 14.964C12.5415 14.928 12.5529 14.893 12.574 14.864L15.004 11.864C15.0195 11.8446 15.0394 11.829 15.0619 11.8186C15.0845 11.8082 15.1092 11.8032 15.134 11.804H23.714C23.7554 11.8045 23.7953 11.8197 23.8264 11.847C23.8576 11.8742 23.878 11.9117 23.8841 11.9526C23.8901 11.9936 23.8813 12.0354 23.8593 12.0704C23.8373 12.1055 23.8035 12.1316 23.764 12.144L12.764 15.144H12.724ZM15.234 12.144L13.234 14.624L22.484 12.124L15.234 12.144Z" fill="#0050db"/>
<path d="M14.974 12.994C14.9399 12.9917 14.9071 12.9803 14.8789 12.961C14.8508 12.9416 14.8283 12.915 14.814 12.884L13.424 9.29398C13.4117 9.2727 13.4053 9.24856 13.4053 9.22398C13.4053 9.19941 13.4117 9.17527 13.424 9.15398L17.674 1.69398C17.6979 1.65978 17.7324 1.63439 17.7722 1.62174C17.8119 1.60909 17.8548 1.60987 17.894 1.62398C17.9321 1.63959 17.9632 1.66846 17.9815 1.70523C17.9999 1.742 18.0044 1.78419 17.994 1.82398L15.104 12.824C15.0917 12.8581 15.0703 12.8883 15.0421 12.9112C15.0139 12.9341 14.98 12.9489 14.944 12.954L14.974 12.994ZM13.764 9.25398L14.904 12.254L17.334 2.94398L13.764 9.25398Z" fill="#0050db"/>
<path d="M6.08394 22.324H5.97394C5.93717 22.3068 5.90727 22.2777 5.88912 22.2414C5.87097 22.2051 5.86562 22.1637 5.87394 22.124L8.80394 11.124C8.80217 11.0835 8.8148 11.0438 8.83958 11.0118C8.86437 10.9798 8.8997 10.9576 8.9393 10.9492C8.97889 10.9408 9.02018 10.9467 9.05582 10.9659C9.09146 10.9851 9.11915 11.0163 9.13394 11.054L10.4939 14.644C10.5039 14.666 10.509 14.6898 10.509 14.714C10.509 14.7381 10.5039 14.762 10.4939 14.784L6.23394 22.244C6.21687 22.268 6.19443 22.2878 6.16839 22.3017C6.14235 22.3156 6.11344 22.3232 6.08394 22.324ZM9.08394 11.704L6.57394 20.944L10.1739 14.704L9.08394 11.704Z" fill="#0050db"/>
<path d="M6.05402 8.77399L5.97402 8.75399L1.71402 6.24399C1.6809 6.22374 1.65522 6.19332 1.6408 6.15728C1.62639 6.12124 1.62401 6.0815 1.63402 6.04399C1.65214 6.01257 1.67846 5.98666 1.71016 5.96905C1.74187 5.95143 1.77777 5.94277 1.81402 5.94399L9.44402 6.51399C9.48999 6.51904 9.53226 6.54159 9.56205 6.57697C9.59184 6.61235 9.60687 6.65783 9.60402 6.70399C9.60283 6.72594 9.59712 6.74742 9.58725 6.76706C9.57739 6.78671 9.56358 6.80412 9.54669 6.81819C9.5298 6.83227 9.51019 6.84271 9.48909 6.84887C9.46798 6.85503 9.44583 6.85677 9.42402 6.85399L2.51402 6.32399L6.14402 8.45399C6.17841 8.47215 6.20553 8.50154 6.22087 8.53728C6.23621 8.57301 6.23883 8.61292 6.2283 8.65035C6.21777 8.68778 6.19473 8.72048 6.16302 8.74297C6.1313 8.76547 6.09283 8.77642 6.05402 8.77399Z" fill="#0050db"/>
<path d="M22.1639 18.044L14.5339 17.474C14.5106 17.4734 14.4876 17.468 14.4664 17.4582C14.4452 17.4484 14.4262 17.4343 14.4106 17.4169C14.3951 17.3995 14.3833 17.3791 14.3759 17.3569C14.3685 17.3347 14.3658 17.3113 14.3678 17.288C14.3699 17.2647 14.3767 17.2421 14.3878 17.2216C14.399 17.201 14.4142 17.183 14.4326 17.1686C14.4509 17.1541 14.4721 17.1436 14.4947 17.1377C14.5172 17.1317 14.5408 17.1305 14.5639 17.134L21.4639 17.644L17.8339 15.504C17.814 15.4937 17.7965 15.4793 17.7825 15.4618C17.7686 15.4443 17.7584 15.424 17.7527 15.4023C17.7471 15.3806 17.7461 15.358 17.7497 15.3359C17.7533 15.3138 17.7616 15.2927 17.7739 15.274C17.7968 15.2359 17.8337 15.2083 17.8767 15.1971C17.9197 15.1859 17.9653 15.1919 18.0039 15.214L22.2639 17.724C22.2958 17.7446 22.3201 17.7752 22.333 17.8109C22.346 17.8467 22.3468 17.8857 22.3355 17.922C22.3241 17.9582 22.3012 17.9898 22.2702 18.0119C22.2393 18.0339 22.2019 18.0452 22.1639 18.044Z" fill="#0050db"/>
<path d="M15.334 7.30399C15.3007 7.30376 15.2681 7.29429 15.2398 7.27663C15.2116 7.25898 15.1888 7.23383 15.174 7.20399L12.154 0.94399V5.16399C12.1516 5.2083 12.1329 5.25016 12.1015 5.28153C12.0701 5.31291 12.0283 5.33159 11.984 5.33399C11.9389 5.33399 11.8956 5.31608 11.8638 5.2842C11.8319 5.25232 11.814 5.20908 11.814 5.16399V0.21399C11.8139 0.170583 11.8304 0.128792 11.8602 0.0971832C11.8899 0.0655745 11.9306 0.0465428 11.974 0.0439896C12.0123 0.0362573 12.0521 0.041982 12.0868 0.0601983C12.1214 0.0784146 12.1486 0.108008 12.164 0.14399L15.504 7.05399C15.5219 7.09538 15.5236 7.14198 15.5088 7.18457C15.4939 7.22716 15.4637 7.26264 15.424 7.28399L15.334 7.30399Z" fill="#0050db"/>
<path d="M11.9738 23.944C11.9414 23.9459 11.909 23.9384 11.8807 23.9224C11.8523 23.9065 11.8291 23.8827 11.8138 23.854L8.48385 16.944C8.47597 16.9064 8.48102 16.8673 8.49818 16.833C8.51533 16.7987 8.54358 16.7712 8.57833 16.755C8.61309 16.7388 8.65231 16.7348 8.68962 16.7437C8.72693 16.7526 8.76014 16.7738 8.78385 16.804L11.7838 23.004V18.784C11.7838 18.684 11.8538 18.634 11.9538 18.614C11.9989 18.614 12.0422 18.6319 12.0741 18.6638C12.1059 18.6957 12.1238 18.7389 12.1238 18.784L12.0638 23.724C12.0761 23.7654 12.0739 23.8098 12.0575 23.8498C12.0411 23.8898 12.0116 23.923 11.9738 23.944Z" fill="#0050db"/>
<path d="M1.78399 18.014C1.76035 18.0108 1.73756 18.003 1.71696 17.991C1.69636 17.979 1.67836 17.963 1.66399 17.944C1.64047 17.914 1.62769 17.8771 1.62769 17.839C1.62769 17.8009 1.64047 17.7639 1.66399 17.734L5.92399 11.394C5.95028 11.3569 5.98964 11.3311 6.03416 11.3218C6.07868 11.3125 6.12507 11.3205 6.16399 11.344C6.18101 11.359 6.19465 11.3775 6.20399 11.3982C6.21333 11.4188 6.21816 11.4413 6.21816 11.464C6.21816 11.4867 6.21333 11.5091 6.20399 11.5298C6.19465 11.5505 6.18101 11.569 6.16399 11.584L2.32399 17.344L5.97399 15.274C5.99301 15.2586 6.01514 15.2475 6.03885 15.2414C6.06257 15.2353 6.08732 15.2345 6.1114 15.2388C6.13549 15.2432 6.15834 15.2527 6.1784 15.2668C6.19847 15.2808 6.21526 15.299 6.22764 15.3201C6.24002 15.3412 6.24769 15.3648 6.25014 15.3891C6.25258 15.4135 6.24973 15.4381 6.24179 15.4612C6.23384 15.4844 6.22099 15.5056 6.20411 15.5233C6.18723 15.541 6.16672 15.5549 6.14399 15.564L1.86399 17.994L1.78399 18.014Z" fill="#0050db"/>
<path d="M17.8638 12.614C17.8481 12.6206 17.8312 12.624 17.8141 12.624C17.797 12.624 17.7801 12.6207 17.7643 12.6142C17.7486 12.6077 17.7342 12.5982 17.7221 12.5861C17.71 12.5741 17.7004 12.5598 17.6938 12.544C17.6873 12.5282 17.6839 12.5113 17.6838 12.4943C17.6838 12.4772 17.6871 12.4603 17.6936 12.4445C17.7001 12.4287 17.7097 12.4144 17.7217 12.4023C17.7338 12.3902 17.7481 12.3806 17.7638 12.374L21.6738 6.654L17.9738 8.694C17.9353 8.71603 17.8896 8.72209 17.8466 8.71087C17.8036 8.69966 17.7667 8.67206 17.7438 8.63399C17.7251 8.59377 17.7219 8.54804 17.7348 8.50559C17.7477 8.46315 17.7759 8.42696 17.8138 8.404L22.0938 5.944C22.1269 5.92359 22.166 5.91514 22.2046 5.92007C22.2432 5.925 22.2789 5.943 22.3058 5.97108C22.3327 5.99915 22.3492 6.0356 22.3524 6.07435C22.3557 6.11309 22.3456 6.15179 22.3238 6.184L17.9738 12.534C17.962 12.5542 17.9461 12.5717 17.9272 12.5855C17.9083 12.5992 17.8867 12.609 17.8638 12.614Z" fill="#0050db"/>
</svg>

<svg id="Слой_1" data-name="Слой 1" xmlns="http://www.w3.org/2000/svg" viewBox="0 0 24 24"><title>POWRМонтажная область 1</title><path d="M12,23.94a.16.16,0,0,1-.12-.05L.05,12.09,0,12A.15.15,0,0,1,0,12a.13.13,0,0,1,0-.06l0-.06L11.85.05l.06,0H12l.05,0L23.9,11.85A.21.21,0,0,1,24,12a.17.17,0,0,1-.05.12L12.09,23.94A.13.13,0,0,1,12,23.94ZM.41,11.94,12,23.54l11.56-11.6L12,.41Z"/><path d="M17.87,22.36,1.7,18a.05.05,0,0,1-.05,0l0-.05a.28.28,0,0,1,0-.13L5.9,1.7A.28.28,0,0,1,6,1.6a.16.16,0,0,1,.12,0L22.24,5.94l.06,0,.05,0a.14.14,0,0,1,0,.06.13.13,0,0,1,0,.06L18,22.24a.21.21,0,0,1-.06.1A.14.14,0,0,1,17.87,22.36ZM2,17.75,17.77,22,22,6.19,6.19,1.94Z"/><path d="M6.05,22.38H6a.1.1,0,0,1,0,0l0-.07L1.58,6.11a.19.19,0,0,1,0-.1.2.2,0,0,1,.09-.07L17.83,1.57a.28.28,0,0,1,.13,0,.17.17,0,0,1,.07.1l4.33,16.14a.15.15,0,0,1,0,.13.14.14,0,0,1-.1.08L6.1,22.37ZM2,6.19,6.17,22,22,17.75,17.75,1.94Z"/><path d="M17.82,22.35h-.08L.14,12.17a.1.1,0,0,1-.05-.06.16.16,0,0,1,0-.09.13.13,0,0,1,0-.08.18.18,0,0,1,.05-.07L17.74,1.71l.09,0,.08,0a.13.13,0,0,1,.06.07.12.12,0,0,1,0,.08V22.18a.15.15,0,0,1,0,.09.09.09,0,0,1-.06.06ZM.57,12l17.08,9.86V2.15Z"/><path d="M6.07,22.33H6a.1.1,0,0,1-.05-.06.16.16,0,0,1,0-.09V1.8a.31.31,0,0,1,0-.08.18.18,0,0,1,0-.07l.09,0,.08,0,17.68,10.2a.13.13,0,0,1,.06.07.12.12,0,0,1,0,.08.15.15,0,0,1,0,.09.09.09,0,0,1-.06.06L6.15,22.31ZM6.25,2.09V21.87L23.42,12Z"/><path d="M14.18,10l-3.81-.63a.23.23,0,0,1-.12-.08L6,1.88a.21.21,0,0,1,0-.11.21.21,0,0,1,0-.11.17.17,0,0,1,.22,0l8.1,8a.19.19,0,0,1,0,.1.14.14,0,0,1,0,.09.17.17,0,0,1,0,.1A.12.12,0,0,1,14.18,10ZM10.5,9l3.18.52-6.8-6.7Z"/><path d="M17.86,22.33a.16.16,0,0,1-.12,0l-8.1-8a.15.15,0,0,1,0-.1.19.19,0,0,1,0-.1A.24.24,0,0,1,9.7,14l.09-.05,3.78.63a.17.17,0,0,1,.12.08L18,22.07a.21.21,0,0,1,.05.12.16.16,0,0,1-.05.11A.11.11,0,0,1,17.86,22.33Zm-7.6-8,6.8,6.75-3.63-6.14Z"/><path d="M.21,12.14a.14.14,0,0,1-.11,0A.24.24,0,0,1,0,12a.2.2,0,0,1,0-.11.18.18,0,0,1,.09-.08L11.21,8.87a.2.2,0,0,1,.11,0s.07,0,.08.07a.19.19,0,0,1,0,.1.17.17,0,0,1,0,.1L9,12.06l-.05,0H.26Zm10.57-2.8L1.52,11.8H8.71Z"/><path d="M12.72,15.14a.12.12,0,0,1-.08,0,.13.13,0,0,1-.07-.06.15.15,0,0,1,0-.1.19.19,0,0,1,0-.1l2.43-3,.06,0,.07,0h8.58a.17.17,0,0,1,.12,0,.12.12,0,0,1,.05.1.16.16,0,0,1,0,.12.14.14,0,0,1-.1.07l-11,3Zm2.51-3-2,2.48,9.25-2.5Z"/><path d="M15,13l-.09,0a.19.19,0,0,1-.07-.08L13.42,9.29a.15.15,0,0,1,0-.07.2.2,0,0,1,0-.07l4.25-7.46a.23.23,0,0,1,.1-.07.24.24,0,0,1,.12,0,.2.2,0,0,1,.09.09.14.14,0,0,1,0,.11l-2.89,11a.15.15,0,0,1-.06.09.18.18,0,0,1-.1,0ZM13.76,9.25l1.14,3,2.43-9.31Z"/><path d="M6.08,22.32H6a.15.15,0,0,1-.08-.08.23.23,0,0,1,0-.12l2.93-11a.21.21,0,0,1,0-.11.17.17,0,0,1,.1-.06.17.17,0,0,1,.12,0,.18.18,0,0,1,.07.08l1.36,3.59a.25.25,0,0,1,0,.07.14.14,0,0,1,0,.07L6.23,22.24a.12.12,0,0,1-.06.06A.15.15,0,0,1,6.08,22.32Zm3-10.62L6.57,20.94l3.6-6.24Z"/><path d="M6.05,8.77,6,8.75,1.71,6.24a.27.27,0,0,1-.07-.08.25.25,0,0,1,0-.12A.27.27,0,0,1,1.71,6a.19.19,0,0,1,.1,0l7.63.57a.19.19,0,0,1,.12.07.14.14,0,0,1,0,.12.15.15,0,0,1,0,.07l0,.05-.06,0a.08.08,0,0,1-.07,0L2.51,6.32,6.14,8.45a.14.14,0,0,1,.08.09.14.14,0,0,1,0,.11.16.16,0,0,1-.07.09A.11.11,0,0,1,6.05,8.77Z"/><path d="M22.16,18l-7.63-.57h-.06l-.06,0s0,0,0-.06a.2.2,0,0,1,0-.07.14.14,0,0,1,0-.07.1.1,0,0,1,0,0,.09.09,0,0,1,.06,0h.07l6.9.51L17.83,15.5l0,0,0-.06v-.06a.14.14,0,0,1,0-.07.21.21,0,0,1,.11-.07.16.16,0,0,1,.12,0l4.26,2.51a.15.15,0,0,1,.07.09.14.14,0,0,1,0,.11.22.22,0,0,1-.07.09A.14.14,0,0,1,22.16,18Z"/><path d="M15.33,7.3l-.09,0a.27.27,0,0,1-.07-.08l-3-6.26V5.16a.17.17,0,0,1-.17.17.16.16,0,0,1-.12,0,.17.17,0,0,1,0-.12V.21a.16.16,0,0,1,0-.11A.24.24,0,0,1,12,0a.25.25,0,0,1,.12,0,.18.18,0,0,1,.07.08L15.5,7.05a.2.2,0,0,1,0,.13.18.18,0,0,1-.09.1Z"/><path d="M12,23.94a.1.1,0,0,1-.09,0,.16.16,0,0,1-.07-.07L8.48,16.94a.23.23,0,0,1,0-.11.2.2,0,0,1,.19-.09.15.15,0,0,1,.09.06l3,6.2V18.78c0-.1.07-.15.17-.17a.17.17,0,0,1,.12.05.16.16,0,0,1,0,.12l-.06,4.94a.19.19,0,0,1,0,.13A.2.2,0,0,1,12,23.94Z"/><path d="M1.78,18l-.06,0-.06,0a.17.17,0,0,1,0-.1.2.2,0,0,1,0-.11l4.26-6.34A.26.26,0,0,1,6,11.32a.18.18,0,0,1,.13,0l0,.06a.14.14,0,0,1,0,.06.14.14,0,0,1,0,.07.1.1,0,0,1,0,.05L2.32,17.34,6,15.27l.07,0h.07a.09.09,0,0,1,.07,0l.05.05a.14.14,0,0,1,0,.07.17.17,0,0,1,0,.07s0,0,0,.06a.07.07,0,0,1-.06,0L1.86,18Z"/><path d="M17.86,12.61h-.1l0,0,0-.05a.43.43,0,0,1,0,0,.43.43,0,0,0,0-.05l0,0,0,0,3.91-5.72-3.7,2a.13.13,0,0,1-.12,0,.18.18,0,0,1-.11-.08.17.17,0,0,1,0-.12.21.21,0,0,1,.07-.11l4.28-2.46a.23.23,0,0,1,.11,0,.22.22,0,0,1,.11,0,.21.21,0,0,1,0,.1.11.11,0,0,1,0,.11L18,12.53a.21.21,0,0,1,0,.06Z"/></svg>
